X:1
T:Joy to the world - Anon
T:#
%%score 1 2 3
L:1/8
Q:1/4=132
M:4/4
K:D
V:1 treble nm="Soprano" snm="S"
V:2 treble nm="Alto" snm="A"
V:3 treble-8 nm="Tenor" snm="T"
V:1
"^Joy to the world""^Anonymous""^Sounding joy" A4 F2 F2 | A6 A2 | (F2 B4) G2 | E8- | E4 D4 | %5
w: Joy to the|world! the|Sa\- * viour|reigns;|* Let|
w: No more let|sins and|sor\- * rows|grow,|* Nor|
w: He rules the|world with|truth * and|grace,|* And|
w: Joy to the|world! the|Lord * is|come!|* Let|
 F6 A2 |[M:4/4] (F2 B2 F2) ^G2 | A8 || z8 | z8 | z4 A4 | A2 (Bc) d2 F2 | F2 B2 (A>G) (FG) | %13
w: men their|songs * * em-|ploy,|||while|fields and * floods, rocks,|hills and plains * re\- *|
w: thorns in-|fest * * the|ground;|||he|comes to * make his|bless- ings flow * far *|
w: makes the|na\- * * tions|prove|||the|glo- ries * of his|right- eous- ness, * and *|
w: earth re-|ceive * * her|King;|||Let|ev'- ry * heart pre-|pare him room, * and *|
 A2 d2 c2 B2 | A4 z4 | z4 A4 | (d3 A d2) e2 | (fe d2 B4 | A2) A2 A4- | A8 |] %20
w: peat the sound- ing|joy,|re-|peat * * the|sound\- * * *|* ing joy.||
w: as the curse is|found,|far|as * * the|curse * * *|* is found.||
w: won- ders of his|love,|and|won\- * * ders|of * * *|* his love.||
w: heav'n and na- ture|sing,|and|heav'n * * and|na\- * * *|* ture sing.||
V:2
 D4 F2 F2 | (F3 E F2) A2 | (D2 E2 F2) E2 | E8- | E4 F4 | (D3 C D2) E2 |[M:4/4] (F2 E2 D2) E2 | %7
w: Joy to the|world! * * the|Sa\- * * viour|reigns;|* Let|men * * their|songs * * em-|
w: No more let|sins * * ans|sor\- * * rows|grow,|* Nor|thorns * * in-|fest * * the|
w: He rules the|world * * with|truth * * and|grace,|* And|makes * * the|na\- * * tions|
w: Joy to the|world! * * the|Lord * * is|come!|* Let|earth * * re-|ceive * * her|
 F8 || z8 | z8 | z8 | z4 D4 | D2 (DE) F2 D2 | (F>E) (DE) F2 (FE) | D2 E2 F2 E2 | D4 D4 | %16
w: ploy,||||while|fields and * floods, rocks,|hills * and * plains re\- *|peat the sound- ing|joy, re-|
w: ground;||||he|comes to * make his|bless\- * ings * flow far *|as the curse is|found, far|
w: prove||||the|glo- ries * of his|right\- * eous\- * ness, and *|won- ders of his|love, and|
w: King;||||Let|ev'- ry * heart pre-|pare * him * room, and *|heav'n and na- ture|sing, and|
 (F3 E F2) A2 | (B2 A2 A4 | D2) E2 F4- | F8 |] %20
w: peat * * the|sound\- * *|* ing joy.||
w: as * * the|curse * *|* is found.||
w: won\- * * ders|of * *|* his love.||
w: heav'n * * and|na\- * *|* ture sing.||
V:3
 D4 A2 A2 | (d3 A d2) e2 | (f2 e2 d2) B2 | A8- | A4 A4 | (B3 A B2) c2 | %6
w: Joy to the|world! * * the|Sa\- * * viour|reigns;|* Let|men * * their|
w: No more let|sins * * ans|sor\- * * rows|grow,|* Nor|thorns * * in-|
w: He rules the|world * * with|truth * * and|grace,|* And|makes * * the|
w: Joy to the|world! * * the|Lord * * is|come!|* Let|earth * * re-|
[M:4/4][K:treble-8] (d2 F2 A2) c2 | d8 || z8 | z4 A4 | A2 (Bc) d2 F2 | F2 B2 (G>E) (FG) | %12
w: songs * * em-|ploy,||while|fields and * floods, rocks,|hills and plains * re\- *|
w: fest * * the|ground;||he|comes to * make his|bless- ings flow * far *|
w: na\- * * tions|prove||the|glo- ries * of his|right- eous- ness, * and *|
w: ceive * * her|King;||Let|ev'- ry * heart pre-|pare him room, * and *|
 A2 d2 c2 B2 | A4 z4 | z8 | z4 A4 | A6 F2 | (B3 A d2 e2 | f2) e2 d4- | d8 |] %20
w: peat the sound- ing|joy,||re-|peat the|sound\- * * *|* ing joy.||
w: as the curse is|found,||far|as the|curse * * *|* is found.||
w: won- ders of his|love,||and|won- ders|of * * *|* his love.||
w: heav'n and na- ture|sing,||and|heav'n and|na\- * * *|* ture sing.||

